svg/m/VA.svg

<svg width="20" height="15" viewBox="0 0 20 15" fill="none" xmlns="http://www.w3.org/2000/svg">
<mask id="mask0" mask-type="alpha" maskUnits="userSpaceOnUse" x="0" y="0" width="20" height="15">
<rect width="20" height="15" fill="white"/>
</mask>
<g mask="url(#mask0)">
<path fill-rule="evenodd" clip-rule="evenodd" d="M0 0H20V15H0V0Z" fill="#F7FCFF"/>
<path fill-rule="evenodd" clip-rule="evenodd" d="M0 0H8.75V15H0V0Z" fill="#FFDC17"/>
<path d="M14.2385 7.96948L14.0228 7.98354C14.0743 8.72464 14.2335 9.29712 14.5037 9.70113C14.9395 10.3526 15.5145 10.8564 15.8993 10.8564C15.9867 10.8564 16.007 10.8889 15.9782 10.969C15.9372 11.0829 15.8076 11.195 15.6408 11.238C15.3635 11.3095 14.7327 11.3465 13.7591 11.3465V11.5558C14.7521 11.5558 15.3944 11.5181 15.6965 11.4402C15.9311 11.3797 16.1173 11.2188 16.1824 11.0378C16.2577 10.8285 16.1441 10.6471 15.8993 10.6471C15.6135 10.6471 15.0834 10.1827 14.6852 9.58738C14.4378 9.2174 14.2878 8.67805 14.2385 7.96948Z" fill="#AF0100"/>
<path d="M13.2169 7.96948L13.4326 7.98354C13.3811 8.72464 13.2218 9.29712 12.9517 9.70113C12.5159 10.3526 11.9409 10.8564 11.5561 10.8564C11.4687 10.8564 11.4483 10.8889 11.4772 10.969C11.5182 11.0829 11.6478 11.195 11.8145 11.238C12.0919 11.3095 12.7227 11.3465 13.6963 11.3465V11.5558C12.7032 11.5558 12.061 11.5181 11.7589 11.4402C11.5243 11.3797 11.3381 11.2188 11.273 11.0378C11.1977 10.8285 11.3113 10.6471 11.5561 10.6471C11.8419 10.6471 12.372 10.1827 12.7702 9.58738C13.0176 9.2174 13.1676 8.67805 13.2169 7.96948Z" fill="#AF0100"/>
<path fill-rule="evenodd" clip-rule="evenodd" d="M17.5418 4.24878L11.8284 8.70253C11.6283 8.63735 11.4099 8.60169 11.1824 8.60169C10.2555 8.60169 9.47974 9.19378 9.47974 9.96215C9.47974 10.7305 10.2555 11.3226 11.1824 11.3226C11.2887 11.3226 11.3931 11.3148 11.4945 11.2999C11.4007 11.2266 11.3306 11.1351 11.2956 11.0377C11.2535 10.9206 11.2705 10.8122 11.3366 10.7395C11.2863 10.7444 11.2349 10.747 11.1824 10.747C10.557 10.747 10.0743 10.3786 10.0743 9.96215C10.0743 9.54569 10.557 9.17727 11.1824 9.17727C11.8079 9.17727 12.2905 9.54569 12.2905 9.96215C12.2905 10.0896 12.2454 10.2125 12.1647 10.3217C12.1799 10.3082 12.1952 10.2943 12.2104 10.2801C12.4084 10.0957 11.9635 10.8563 11.5787 10.8563C11.4913 10.8563 11.471 10.8888 11.4998 10.9689C11.5382 11.0756 11.6543 11.1807 11.806 11.2289C12.4327 11.033 12.8851 10.549 12.8851 9.96215C12.8851 9.72211 12.8094 9.49928 12.6771 9.30632L15.7476 6.70032L15.9531 6.91266L16.1011 6.77849L16.614 7.1586L16.3995 7.32394L16.8373 7.85605L17.7204 7.17522L17.7354 7.16748L17.7328 7.16569L17.7875 7.12349L17.3497 6.59138L17.1381 6.75455L16.5646 6.35805L16.6318 6.29708L16.4473 6.10646L16.7248 5.87097L16.872 6.02312L17.0302 5.8797L17.5274 6.27329L17.3184 6.4344L17.7562 6.96651L18.5127 6.38329L18.5994 6.33586L18.5868 6.3262L18.7064 6.23395L18.2687 5.70185L18.0214 5.89246L17.4768 5.47462L17.5507 5.40755L17.4245 5.27711L17.9898 4.79735L17.5418 4.24878Z" fill="#F4B300"/>
<path fill-rule="evenodd" clip-rule="evenodd" d="M9.80407 9.20335C9.96826 9.20335 10.1014 9.09793 10.1014 8.96789C10.1014 8.83784 9.96826 8.73242 9.80407 8.73242C9.63988 8.73242 9.50677 8.83784 9.50677 8.96789C9.50677 9.09793 9.63988 9.20335 9.80407 9.20335ZM9.91218 11.3487C10.0764 11.3487 10.2095 11.2433 10.2095 11.1132C10.2095 10.9832 10.0764 10.8778 9.91218 10.8778C9.74799 10.8778 9.61488 10.9832 9.61488 11.1132C9.61488 11.2433 9.74799 11.3487 9.91218 11.3487ZM12.8581 11.1132C12.8581 11.2433 12.725 11.3487 12.5608 11.3487C12.3966 11.3487 12.2635 11.2433 12.2635 11.1132C12.2635 10.9832 12.3966 10.8778 12.5608 10.8778C12.725 10.8778 12.8581 10.9832 12.8581 11.1132Z" fill="#BFBFBF"/>
<path fill-rule="evenodd" clip-rule="evenodd" d="M14.6149 9.96216C14.6149 9.6168 14.7716 9.30705 15.0283 9.07067L11.7474 6.52983L11.7099 6.55864L11.8056 6.64538L11.5469 6.91267L11.4107 6.78912L10.9084 7.17589L11.1005 7.32395L10.6627 7.85606L9.78901 7.18249L9.76464 7.16749L9.76723 7.1657L9.71249 7.1235L10.1503 6.59139L10.3619 6.75456L10.9354 6.35806L10.8682 6.29709L11.1161 6.04096L10.8272 5.81726L10.628 6.02313L10.4758 5.88508L9.98488 6.28278L10.1816 6.43441L9.74381 6.96652L9.01134 6.40184L8.90064 6.33586L8.91322 6.32621L8.79357 6.23396L9.23133 5.70185L9.47858 5.89246L10.0232 5.47463L9.94926 5.40756L10.0987 5.25312L9.51022 4.79735L9.88166 4.3479L15.5578 8.74359C15.7876 8.65248 16.0461 8.6017 16.3176 8.6017C17.2445 8.6017 18.0203 9.19379 18.0203 9.96216C18.0203 10.7305 17.2445 11.3226 16.3176 11.3226C16.2113 11.3226 16.1069 11.3148 16.0055 11.2999C16.0993 11.2266 16.1694 11.1351 16.2044 11.0377C16.2465 10.9206 16.2295 10.8122 16.1634 10.7395C16.2137 10.7445 16.2651 10.747 16.3176 10.747C16.943 10.747 17.4257 10.3786 17.4257 9.96216C17.4257 9.54569 16.943 9.17728 16.3176 9.17728C15.6921 9.17728 15.2095 9.54569 15.2095 9.96216C15.2095 10.0896 15.2546 10.2125 15.3353 10.3217C15.3201 10.3082 15.3048 10.2943 15.2896 10.2801C15.0916 10.0957 15.5365 10.8563 15.9213 10.8563C16.0087 10.8563 16.029 10.8888 16.0002 10.9689C15.9618 11.0756 15.8457 11.1807 15.694 11.2289C15.0673 11.033 14.6149 10.549 14.6149 9.96216Z" fill="#BFBFBF"/>
<path fill-rule="evenodd" clip-rule="evenodd" d="M17.6959 9.20335C17.5317 9.20335 17.3986 9.09793 17.3986 8.96789C17.3986 8.83784 17.5317 8.73242 17.6959 8.73242C17.8601 8.73242 17.9932 8.83784 17.9932 8.96789C17.9932 9.09793 17.8601 9.20335 17.6959 9.20335ZM17.5878 11.3487C17.4236 11.3487 17.2905 11.2433 17.2905 11.1132C17.2905 10.9832 17.4236 10.8778 17.5878 10.8778C17.752 10.8778 17.8851 10.9832 17.8851 11.1132C17.8851 11.2433 17.752 11.3487 17.5878 11.3487ZM14.6419 11.1132C14.6419 11.2433 14.775 11.3487 14.9392 11.3487C15.1034 11.3487 15.2365 11.2433 15.2365 11.1132C15.2365 10.9832 15.1034 10.8778 14.9392 10.8778C14.775 10.8778 14.6419 10.9832 14.6419 11.1132Z" fill="#F4B300"/>
<path fill-rule="evenodd" clip-rule="evenodd" d="M13.5878 7.37207C13.5431 7.37207 13.5068 7.40837 13.5068 7.45315V7.79067H13.2069C13.1635 7.79067 13.1284 7.82582 13.1284 7.86916C13.1284 7.91251 13.1635 7.94765 13.2069 7.94765H13.5068V12.4189C13.5068 12.4637 13.5431 12.5 13.5878 12.5H13.75C13.7948 12.5 13.8311 12.4637 13.8311 12.4189V7.94765H14.2931C14.3365 7.94765 14.3716 7.91251 14.3716 7.86916C14.3716 7.82582 14.3365 7.79067 14.2931 7.79067H13.8311V7.45315C13.8311 7.40837 13.7948 7.37207 13.75 7.37207H13.5878Z" fill="#AF0100"/>
<path fill-rule="evenodd" clip-rule="evenodd" d="M10.4716 4.74601L10.6039 4.8368C10.9122 4.41577 11.1897 4.3312 11.4719 4.55217C11.9591 4.93366 12.0013 5.86442 11.4803 6.17605C10.8588 6.54772 10.5438 7.27254 10.8194 7.66702C11.0737 8.03102 11.6867 7.89327 12.2919 7.43606C12.3993 7.35489 12.5018 7.26823 12.598 7.17717L12.4702 7.07847C12.3825 7.16048 12.2895 7.23874 12.1921 7.31231C11.6523 7.72012 11.1336 7.83666 10.9537 7.57908C10.7389 7.27158 11.0135 6.63973 11.5655 6.3096C12.1899 5.93617 12.1418 4.87476 11.5739 4.43012C11.2076 4.14333 10.8283 4.25893 10.4716 4.74601ZM12.8515 6.65305L12.9835 6.74455C13.213 6.43483 13.3698 6.09941 13.4218 5.76905L13.2615 5.74538C13.2136 6.04965 13.067 6.36236 12.8515 6.65305Z" fill="#979797"/>
<path fill-rule="evenodd" clip-rule="evenodd" d="M17.0434 4.74601L16.9111 4.8368C16.6028 4.41577 16.3253 4.3312 16.0431 4.55217C15.5559 4.93366 15.5137 5.86442 16.0347 6.17605C16.6562 6.54772 16.9712 7.27254 16.6956 7.66702C16.4414 8.03102 15.8283 7.89327 15.2231 7.43606C15.1157 7.35489 15.0133 7.26823 14.917 7.17717L15.0448 7.07847C15.1325 7.16048 15.2255 7.23874 15.3229 7.31231C15.8627 7.72012 16.3814 7.83666 16.5613 7.57908C16.7761 7.27158 16.5015 6.63973 15.9495 6.3096C15.3251 5.93617 15.3732 4.87476 15.9411 4.43012C16.3074 4.14333 16.6867 4.25893 17.0434 4.74601ZM14.6635 6.65305L14.5315 6.74455C14.302 6.43483 14.1452 6.09941 14.0932 5.76905L14.2535 5.74538C14.3014 6.04965 14.448 6.36236 14.6635 6.65305Z" fill="#979797"/>
<path fill-rule="evenodd" clip-rule="evenodd" d="M13.6689 12.5104C13.848 12.5104 13.9933 12.4378 13.9933 12.3482C13.9933 12.2586 13.848 12.186 13.6689 12.186C13.4898 12.186 13.3446 12.2586 13.3446 12.3482C13.3446 12.4378 13.4898 12.5104 13.6689 12.5104Z" fill="#AF0100"/>
<path fill-rule="evenodd" clip-rule="evenodd" d="M13.6149 5.76192C14.2418 5.76192 14.75 5.67722 14.75 5.57273C14.75 5.46825 14.2418 5.38354 13.6149 5.38354C12.988 5.38354 12.4797 5.46825 12.4797 5.57273C12.4797 5.67722 12.988 5.76192 13.6149 5.76192Z" fill="#AF0100"/>
<path fill-rule="evenodd" clip-rule="evenodd" d="M13.6788 1.27393H13.5166V1.46088H13.363V1.61786H13.5166V2.07598H13.6788V1.61786H13.8659V1.46088H13.6788V1.27393ZM12.4594 3.53537L12.387 3.41345C12.4267 3.39682 12.4671 3.38113 12.5084 3.36637L12.2975 2.90373L12.4458 2.84034L12.663 3.31662C12.709 3.30335 12.756 3.29114 12.8039 3.27998C12.7706 3.24224 12.75 3.19061 12.75 3.13366C12.75 3.01807 12.8347 2.92436 12.9392 2.92436C13.0437 2.92436 13.1284 3.01807 13.1284 3.13366C13.1284 3.16629 13.1216 3.19716 13.1096 3.22469C13.238 3.20765 13.3722 3.19711 13.5121 3.19303V3.01566H13.309V2.88941H13.5121V2.73904H13.7265V2.88941H13.974V3.01566H13.7265V3.19179C13.8859 3.19456 14.0351 3.20564 14.1744 3.2251C14.1622 3.19748 14.1554 3.16645 14.1554 3.13366C14.1554 3.01807 14.2401 2.92436 14.3446 2.92436C14.4491 2.92436 14.5338 3.01807 14.5338 3.13366C14.5338 3.19286 14.5116 3.24632 14.4759 3.28439C14.5363 3.30016 14.5944 3.31793 14.65 3.33771L14.8053 2.99731L14.9536 3.06071L14.7996 3.39839C14.8118 3.404 14.8239 3.40972 14.8358 3.41556L14.7541 3.53326L14.741 3.52694L14.7161 3.58158L14.5677 3.51819L14.592 3.46504C14.3554 3.38013 14.067 3.33427 13.7265 3.32809V3.38412H13.5121V3.32938C13.1079 3.3417 12.7572 3.41053 12.4594 3.53537ZM12.387 3.67507L12.4249 3.73882L12.2975 3.79327L12.5084 4.25591C12.4671 4.27067 12.4267 4.28636 12.387 4.30298L12.4594 4.42491C12.7572 4.30006 13.1079 4.23123 13.5121 4.21891V4.27365H13.7265V4.21762C14.067 4.2238 14.3554 4.26967 14.592 4.35457L14.5677 4.40772L14.7161 4.47112L14.741 4.41648L14.7541 4.4228L14.8358 4.30509C14.8239 4.29925 14.8118 4.29353 14.7996 4.28792L14.9536 3.95025L14.8053 3.88685L14.65 4.22724C14.5944 4.20746 14.5363 4.18969 14.4759 4.17393C14.5116 4.13586 14.5338 4.0824 14.5338 4.0232C14.5338 3.9076 14.4491 3.8139 14.3446 3.8139C14.2401 3.8139 14.1554 3.9076 14.1554 4.0232C14.1554 4.05599 14.1622 4.08701 14.1744 4.11464C14.0351 4.09518 13.8859 4.08409 13.7265 4.08133V3.90519H13.974V3.77894H13.7265V3.62858H13.5121V3.77894H13.309V3.90519H13.5121V4.08256C13.3722 4.08664 13.238 4.09719 13.1096 4.11422C13.1216 4.0867 13.1284 4.05582 13.1284 4.0232C13.1284 3.9076 13.0437 3.8139 12.9392 3.8139C12.8347 3.8139 12.75 3.9076 12.75 4.0232C12.75 4.08014 12.7706 4.13178 12.8039 4.16951C12.756 4.18067 12.709 4.19288 12.663 4.20615L12.4737 3.79107C12.801 3.65656 13.1916 3.58899 13.6461 3.58899C14.1059 3.58899 14.475 3.65812 14.7541 3.79489L14.8358 3.67718C14.5294 3.52705 14.1326 3.45273 13.6461 3.45273C13.161 3.45273 12.741 3.52662 12.387 3.67507ZM12.387 4.56461L12.4249 4.62835L12.2975 4.6828L12.5084 5.14544C12.4671 5.1602 12.4267 5.17589 12.387 5.19252L12.4594 5.31444C12.7572 5.1896 13.1079 5.12077 13.5121 5.10845V5.16319H13.7265V5.10716C14.067 5.11334 14.3554 5.1592 14.592 5.24411L14.5677 5.29726L14.7161 5.36065L14.741 5.30601L14.7541 5.31233L14.8358 5.19463C14.8239 5.18879 14.8118 5.18307 14.7996 5.17746L14.9536 4.83978L14.8053 4.77638L14.65 5.11678C14.5944 5.097 14.5363 5.07923 14.4759 5.06346C14.5116 5.02539 14.5338 4.97193 14.5338 4.91273C14.5338 4.79714 14.4491 4.70343 14.3446 4.70343C14.2401 4.70343 14.1554 4.79714 14.1554 4.91273C14.1554 4.94552 14.1622 4.97655 14.1744 5.00417C14.0351 4.98471 13.8859 4.97363 13.7265 4.97086V4.79473H13.974V4.66848H13.7265V4.51811H13.5121V4.66848H13.309V4.79473H13.5121V4.9721C13.3722 4.97618 13.238 4.98672 13.1096 5.00376C13.1216 4.97623 13.1284 4.94536 13.1284 4.91273C13.1284 4.79714 13.0437 4.70343 12.9392 4.70343C12.8347 4.70343 12.75 4.79714 12.75 4.91273C12.75 4.96968 12.7706 5.02131 12.8039 5.05905C12.756 5.07021 12.709 5.08242 12.663 5.09569L12.4737 4.68061C12.801 4.5461 13.1916 4.47853 13.6461 4.47853C14.1059 4.47853 14.475 4.54766 14.7541 4.68443L14.8358 4.56672C14.5294 4.41659 14.1326 4.34226 13.6461 4.34226C13.161 4.34226 12.741 4.41616 12.387 4.56461ZM12.387 5.45414L12.4594 5.57607C12.7896 5.43762 13.1849 5.36806 13.6461 5.36806C14.1059 5.36806 14.475 5.43719 14.7541 5.57396L14.8358 5.45625C14.5294 5.30612 14.1326 5.2318 13.6461 5.2318C13.161 5.2318 12.741 5.30569 12.387 5.45414Z" fill="#F4B300"/>
</g>
</svg>

<svg width="20" height="15" fill="none" xmlns="http://www.w3.org/2000/svg">
  <mask id="a" maskUnits="userSpaceOnUse" x="0" y="0" width="20" height="15">
    <path fill="#fff" d="M0 0h20v15H0z"/>
  </mask>
  <g mask="url(#a)">
    <path fill-rule="evenodd" clip-rule="evenodd" d="M0 0h20v15H0V0z" fill="#F7FCFF"/>
    <path fill-rule="evenodd" clip-rule="evenodd" d="M0 0h8.75v15H0V0z" fill="#FFDC17"/>
    <path d="M14.239 7.97l-.216.014c.051.74.21 1.313.48 1.717.437.652 1.011 1.155 1.396 1.155.088 0 .108.033.08.113-.042.114-.171.226-.338.269-.277.072-.908.109-1.882.109v.209c.993 0 1.635-.038 1.938-.116.234-.06.42-.221.485-.402.076-.21-.038-.39-.283-.39-.285 0-.816-.465-1.214-1.06-.247-.37-.397-.91-.447-1.619zm-1.022 0l.216.014c-.052.74-.211 1.313-.481 1.717-.436.652-1.011 1.155-1.396 1.155-.087 0-.108.033-.079.113.041.114.17.226.338.269.277.072.908.109 1.881.109v.209c-.993 0-1.635-.038-1.937-.116-.235-.06-.42-.221-.486-.402-.075-.21.038-.39.283-.39.286 0 .816-.465 1.214-1.06.248-.37.398-.91.447-1.619z" fill="#AF0100"/>
    <path fill-rule="evenodd" clip-rule="evenodd" d="M17.542 4.249l-5.714 4.454a2.062 2.062 0 00-.646-.101c-.927 0-1.702.592-1.702 1.36 0 .769.775 1.36 1.702 1.36.107 0 .211-.007.313-.022a.598.598 0 01-.2-.262c-.041-.117-.024-.226.042-.299a1.56 1.56 0 01-.155.008c-.625 0-1.108-.368-1.108-.785 0-.416.483-.785 1.108-.785.626 0 1.108.369 1.108.785a.61.61 0 01-.125.36l.045-.042c.198-.184-.247.576-.631.576-.088 0-.108.033-.08.113.04.107.155.212.307.26.627-.196 1.08-.68 1.08-1.267 0-.24-.077-.463-.209-.656l3.07-2.606.206.213.148-.134.513.38-.215.165.438.532.883-.68.015-.008-.002-.002.055-.042-.438-.533-.212.164-.573-.397.067-.06-.185-.191.278-.236.147.152.158-.143.497.393-.209.161.438.533.757-.584.086-.047-.012-.01.12-.092-.438-.532-.248.19-.544-.417.074-.067-.127-.13.566-.48-.448-.55z" fill="#F4B300"/>
    <path fill-rule="evenodd" clip-rule="evenodd" d="M9.804 9.203c.164 0 .297-.105.297-.235s-.133-.235-.297-.235c-.164 0-.297.105-.297.235s.133.235.297.235zm.108 2.146c.164 0 .297-.106.297-.236s-.133-.235-.297-.235c-.164 0-.297.105-.297.235s.133.236.297.236zm2.946-.236c0 .13-.133.236-.297.236-.164 0-.297-.106-.297-.236s.133-.235.297-.235c.164 0 .297.105.297.235zm1.757-1.151c0-.345.157-.655.413-.891l-3.28-2.541-.038.029.096.086-.26.268-.135-.124-.502.387.191.148-.437.532-.874-.673-.024-.015.002-.002-.054-.042.437-.533.212.164.573-.397-.067-.06.248-.257-.289-.224-.199.206-.152-.138-.491.398.197.151-.438.533-.733-.565-.11-.066.012-.01-.12-.092.438-.532.248.19.544-.417-.074-.067.15-.155-.589-.456.372-.449 5.676 4.396c.23-.091.488-.142.76-.142.926 0 1.702.592 1.702 1.36 0 .769-.776 1.36-1.702 1.36-.107 0-.211-.007-.312-.022a.6.6 0 00.198-.262c.043-.117.026-.226-.04-.299.05.005.101.008.154.008.625 0 1.108-.368 1.108-.785 0-.416-.483-.785-1.108-.785-.626 0-1.109.369-1.109.785 0 .128.046.25.126.36a2.827 2.827 0 01-.045-.042c-.198-.184.247.576.631.576.088 0 .108.033.08.113a.478.478 0 01-.307.26c-.627-.196-1.08-.68-1.08-1.267z" fill="#BFBFBF"/>
    <path fill-rule="evenodd" clip-rule="evenodd" d="M17.696 9.203c-.164 0-.297-.105-.297-.235s.133-.235.297-.235c.164 0 .297.105.297.235s-.133.235-.297.235zm-.108 2.146c-.164 0-.297-.106-.297-.236s.133-.235.297-.235c.164 0 .297.105.297.235s-.133.236-.297.236zm-2.946-.236c0 .13.133.236.297.236.164 0 .297-.106.297-.236s-.133-.235-.297-.235c-.164 0-.297.105-.297.235z" fill="#F4B300"/>
    <path fill-rule="evenodd" clip-rule="evenodd" d="M13.588 7.372a.081.081 0 00-.081.081v.338h-.3a.078.078 0 100 .157h.3v4.47a.08.08 0 00.08.082h.163a.081.081 0 00.081-.081V7.948h.462a.078.078 0 100-.157h-.462v-.338a.081.081 0 00-.081-.08h-.162z" fill="#AF0100"/>
    <path fill-rule="evenodd" clip-rule="evenodd" d="M10.472 4.746l.132.09c.308-.42.586-.505.868-.284.487.382.53 1.312.008 1.624-.621.372-.936 1.097-.66 1.491.254.364.867.226 1.472-.23.107-.082.21-.169.306-.26l-.128-.098c-.088.082-.18.16-.278.233-.54.408-1.058.525-1.238.267-.215-.307.06-.94.611-1.27.625-.373.577-1.434.009-1.879-.366-.287-.746-.171-1.102.316zm2.38 1.907l.131.092c.23-.31.387-.646.439-.976l-.16-.024c-.048.305-.195.617-.41.908zm4.191-1.907l-.132.09c-.308-.42-.586-.505-.868-.284-.487.382-.53 1.312-.008 1.624.621.372.936 1.097.66 1.491-.254.364-.867.226-1.472-.23a3.642 3.642 0 01-.306-.26l.128-.098c.088.082.18.16.278.233.54.408 1.058.525 1.238.267.215-.307-.06-.94-.611-1.27-.625-.373-.577-1.434-.009-1.879.366-.287.746-.171 1.102.316zm-2.38 1.907l-.132.092c-.229-.31-.386-.646-.438-.976l.16-.024c.048.305.195.617.41.908z" fill="#979797"/>
    <path fill-rule="evenodd" clip-rule="evenodd" d="M13.669 12.51c.179 0 .324-.072.324-.162 0-.09-.145-.162-.324-.162-.18 0-.324.073-.324.162 0 .09.145.162.324.162zm-.054-6.748c.627 0 1.135-.085 1.135-.19 0-.104-.508-.188-1.135-.188s-1.135.084-1.135.189c0 .104.508.19 1.135.19z" fill="#AF0100"/>
    <path fill-rule="evenodd" clip-rule="evenodd" d="M13.679 1.274h-.162v.187h-.154v.157h.154v.458h.162v-.458h.187V1.46h-.187v-.187zm-1.22 2.261l-.072-.121c.04-.017.08-.033.121-.048l-.21-.462.148-.064.217.477c.046-.014.093-.026.14-.037a.22.22 0 01-.053-.146c0-.116.085-.21.19-.21.104 0 .188.094.188.21a.228.228 0 01-.018.09 3.91 3.91 0 01.402-.03v-.178h-.203v-.127h.203v-.15h.214v.15h.248v.127h-.248v.176c.16.003.31.014.448.033a.226.226 0 01-.019-.091c0-.116.085-.21.19-.21.104 0 .189.094.189.21a.22.22 0 01-.058.15c.06.016.118.034.174.054l.155-.34.149.063-.154.337.036.018-.082.117-.013-.006-.025.055-.148-.064.024-.053a2.724 2.724 0 00-.866-.137v.056h-.214V3.33a2.946 2.946 0 00-1.053.206zm-.072.14l.038.064-.128.054.211.463c-.04.015-.081.03-.121.047l.072.122a2.945 2.945 0 011.053-.206v.055h.214v-.056c.341.006.63.052.866.137l-.024.053.148.063.025-.054.013.006.082-.118a1.823 1.823 0 00-.036-.017l.154-.338-.149-.063-.155.34a2.106 2.106 0 00-.174-.053.22.22 0 00.058-.15c0-.116-.085-.21-.19-.21-.104 0-.189.094-.189.21 0 .032.007.063.02.09-.14-.019-.29-.03-.449-.033v-.176h.248V3.78h-.248v-.15h-.214v.15h-.203v.126h.203v.178c-.14.004-.274.014-.402.031a.228.228 0 00.018-.09c0-.116-.084-.21-.189-.21-.104 0-.189.094-.189.21 0 .056.02.108.054.146a2.814 2.814 0 00-.141.036l-.19-.415c.328-.134.718-.202 1.173-.202.46 0 .829.07 1.108.206l.082-.118c-.307-.15-.703-.224-1.19-.224-.485 0-.905.074-1.259.222zm0 .89l.038.063-.128.055.211.463c-.04.014-.081.03-.121.047l.072.122a2.946 2.946 0 011.053-.206v.054h.214v-.056c.341.006.63.052.866.137l-.024.053.148.064.025-.055.013.006.082-.117a1.823 1.823 0 00-.036-.017l.154-.338-.149-.064-.155.34a2.11 2.11 0 00-.174-.052.22.22 0 00.058-.151c0-.116-.085-.21-.19-.21-.104 0-.189.094-.189.21a.21.21 0 00.02.091 3.71 3.71 0 00-.449-.033v-.176h.248v-.126h-.248v-.15h-.214v.15h-.203v.126h.203v.177c-.14.004-.274.015-.402.032a.228.228 0 00.018-.091c0-.116-.084-.21-.189-.21-.104 0-.189.094-.189.21 0 .057.02.108.054.146a2.804 2.804 0 00-.141.037l-.19-.415c.328-.135.718-.202 1.173-.202.46 0 .829.069 1.108.205l.082-.117c-.307-.15-.703-.225-1.19-.225-.485 0-.905.074-1.259.223zm0 .89l.072.121c.33-.138.726-.208 1.187-.208.46 0 .829.07 1.108.206l.082-.118c-.307-.15-.703-.224-1.19-.224-.485 0-.905.074-1.259.222z" fill="#F4B300"/>
  </g>
</svg>
